src/assets/divider2.svg

<?xml version="1.0" encoding="UTF-8"?>
<svg xmlns="http://www.w3.org/2000/svg" xmlns:xlink="http://www.w3.org/1999/xlink" version="1.1" width="3191px" height="219px" style="shape-rendering:geometricPrecision; text-rendering:geometricPrecision; image-rendering:optimizeQuality; fill-rule:evenodd; clip-rule:evenodd">
  <g>
    <path style="opacity:0.96" fill="#000000" d="M 1371.5,-0.5 C 1380.17,-0.5 1388.83,-0.5 1397.5,-0.5C 1430.21,3.51697 1459.88,15.3503 1486.5,35C 1500.75,45.9172 1514.42,57.5839 1527.5,70C 1553.07,97.1431 1578.4,124.476 1603.5,152C 1613.8,154.437 1623.8,157.437 1633.5,161C 1610.95,136.68 1601.11,107.846 1604,74.5C 1608.36,47.4699 1623.86,30.6365 1650.5,24C 1658.38,21.8479 1666.38,20.8479 1674.5,21C 1644.77,51.5687 1638.6,86.402 1656,125.5C 1674.01,161.158 1702.51,183.991 1741.5,194C 1784.85,206.154 1827.85,205.154 1870.5,191C 1921.1,168.294 1939.27,130.127 1925,76.5C 1912.72,47.5591 1891.56,28.3925 1861.5,19C 1821.58,7.4423 1787.08,16.2756 1758,45.5C 1741.76,65.4591 1737.09,87.7924 1744,112.5C 1752.44,129.15 1765.6,140.317 1783.5,146C 1807.01,154.558 1827.84,150.391 1846,133.5C 1858.03,117.89 1857.19,103.057 1843.5,89C 1838.37,85.4021 1832.7,84.0688 1826.5,85C 1825.07,85.4652 1823.9,86.2986 1823,87.5C 1824.33,91.1731 1826,94.8398 1828,98.5C 1830.31,111.525 1825.15,120.025 1812.5,124C 1798.26,127.252 1787.42,122.752 1780,110.5C 1776.19,86.0011 1786.69,71.8344 1811.5,68C 1831.09,65.307 1847.59,71.1403 1861,85.5C 1873.25,108.3 1870.42,129.133 1852.5,148C 1838.8,158.844 1823.13,164.011 1805.5,163.5C 1779.24,163.588 1757.07,154.254 1739,135.5C 1723.96,115.226 1719.96,92.8922 1727,68.5C 1737.26,39.2433 1756.76,18.7433 1785.5,7C 1794.41,3.69181 1803.41,1.19181 1812.5,-0.5C 1823.5,-0.5 1834.5,-0.5 1845.5,-0.5C 1880.55,4.04858 1908.55,20.5486 1929.5,49C 2063.15,74.3727 2197.81,92.0394 2333.5,102C 2364.83,102.5 2396.16,102.667 2427.5,102.5C 2430.46,87.366 2439.13,76.866 2453.5,71C 2478.25,62.9711 2498.09,69.4711 2513,90.5C 2514.88,94.3072 2516.05,98.3072 2516.5,102.5C 2741.17,102.5 2965.83,102.5 3190.5,102.5C 3190.5,106.833 3190.5,111.167 3190.5,115.5C 2965.83,115.5 2741.17,115.5 2516.5,115.5C 2512.44,133.393 2501.44,144.56 2483.5,149C 2458.6,153.631 2440.43,144.797 2429,122.5C 2428.02,120.26 2427.52,117.927 2427.5,115.5C 2367.31,113.56 2307.31,116.06 2247.5,123C 2140.16,133.668 2033.49,149.001 1927.5,169C 1906.28,193.287 1879.61,208.287 1847.5,214C 1837.06,215.761 1826.72,217.261 1816.5,218.5C 1798.83,218.5 1781.17,218.5 1763.5,218.5C 1742.57,216.71 1721.57,214.21 1700.5,211C 1666.96,203.693 1633.3,197.026 1599.5,191C 1567.42,185.799 1537.09,190.799 1508.5,206C 1505.67,208.167 1502.83,210.333 1500,212.5C 1498.12,180.101 1512.96,159.935 1544.5,152C 1555.74,150.034 1567.07,149.034 1578.5,149C 1553.9,121.728 1528.56,95.0615 1502.5,69C 1482.18,50.0347 1459.18,35.0347 1433.5,24C 1395.73,11.0766 1358.39,12.41 1321.5,28C 1277,49.1588 1259.17,83.9921 1268,132.5C 1279.62,168.448 1303.78,190.948 1340.5,200C 1372.42,207.628 1401.42,201.628 1427.5,182C 1452.17,160.349 1460,133.849 1451,102.5C 1446.79,94.8992 1441.29,88.3992 1434.5,83C 1417.77,70.8176 1399.1,65.8176 1378.5,68C 1364.68,70.8512 1353.84,78.0179 1346,89.5C 1338.45,105.143 1341.28,118.643 1354.5,130C 1360.51,132.992 1366.51,133.158 1372.5,130.5C 1372.71,129.914 1373.04,129.414 1373.5,129C 1364.95,117.665 1365.61,106.998 1375.5,97C 1387.55,90.6104 1399.22,91.277 1410.5,99C 1417.09,105.886 1419.26,114.052 1417,123.5C 1411.71,137.742 1401.54,146.242 1386.5,149C 1363.99,152.482 1345.82,145.315 1332,127.5C 1322.56,103.455 1327.73,82.9547 1347.5,66C 1367.14,54.388 1388.14,51.0547 1410.5,56C 1458.23,67.9753 1477.9,98.142 1469.5,146.5C 1460.36,176.931 1441.03,198.097 1411.5,210C 1400.34,214.123 1389.01,216.956 1377.5,218.5C 1370.5,218.5 1363.5,218.5 1356.5,218.5C 1319.19,215.517 1289.52,199.017 1267.5,169C 1134.51,143.763 1000.51,126.096 865.5,116C 831.168,115.5 796.835,115.333 762.5,115.5C 758.935,132.233 748.935,143.066 732.5,148C 710.118,153.984 691.951,147.818 678,129.5C 675.573,125.213 673.739,120.713 672.5,116C 448.167,115.5 223.834,115.333 -0.5,115.5C -0.5,111.167 -0.5,106.833 -0.5,102.5C 223.834,102.667 448.167,102.5 672.5,102C 679.414,79.777 694.581,68.277 718,67.5C 735.319,67.8217 748.652,75.155 758,89.5C 760.202,93.6063 761.702,97.9396 762.5,102.5C 820.321,104.179 877.988,102.012 935.5,96C 1046.87,85.2802 1157.54,69.6135 1267.5,49C 1285.22,28.4609 1307.22,14.4609 1333.5,7C 1346.14,3.63775 1358.81,1.13775 1371.5,-0.5 Z"></path>
  </g>
</svg>

<svg xmlns="http://www.w3.org/2000/svg" width="3191" height="219" shape-rendering="geometricPrecision" image-rendering="optimizeQuality" fill-rule="evenodd" xmlns:v="https://vecta.io/nano"><path d="M1371.5-.5h26c32.71 4.017 62.38 15.85 89 35.5 14.25 10.917 27.92 22.584 41 35l76 82c10.3 2.437 20.3 5.437 30 9-22.55-24.32-32.39-53.154-29.5-86.5 4.36-27.03 19.86-43.863 46.5-50.5 7.88-2.152 15.88-3.152 24-3-29.73 30.569-35.9 65.402-18.5 104.5 18.01 35.658 46.51 58.491 85.5 68.5 43.35 12.154 86.35 11.154 129-3 50.6-22.706 68.77-60.873 54.5-114.5-12.28-28.941-33.44-48.107-63.5-57.5-39.92-11.558-74.42-2.724-103.5 26.5-16.24 19.959-20.91 42.292-14 67 8.44 16.65 21.6 27.817 39.5 33.5 23.51 8.558 44.34 4.391 62.5-12.5 12.03-15.61 11.19-30.443-2.5-44.5-5.13-3.598-10.8-4.931-17-4-1.43.465-2.6 1.299-3.5 2.5 1.33 3.673 3 7.34 5 11 2.31 13.025-2.85 21.525-15.5 25.5-14.24 3.252-25.08-1.248-32.5-13.5-3.81-24.499 6.69-38.666 31.5-42.5 19.59-2.693 36.09 3.14 49.5 17.5 12.25 22.8 9.42 43.633-8.5 62.5-13.7 10.844-29.37 16.011-47 15.5-26.26.088-48.43-9.246-66.5-28-15.04-20.274-19.04-42.608-12-67 10.26-29.257 29.76-49.757 58.5-61.5 8.91-3.308 17.91-5.808 27-7.5h33c35.05 4.549 63.05 21.049 84 49.5a3562.66 3562.66 0 0 0 404 53l94 .5c2.96-15.134 11.63-25.634 26-31.5 24.75-8.029 44.59-1.529 59.5 19.5a35.45 35.45 0 0 1 3.5 12h674v13h-674c-4.06 17.893-15.06 29.06-33 33.5-24.9 4.631-43.07-4.203-54.5-26.5-.98-2.24-1.48-4.573-1.5-7a1218.88 1218.88 0 0 0-180 7.5c-107.34 10.668-214.01 26.001-320 46-21.22 24.287-47.89 39.287-80 45-10.44 1.761-20.78 3.261-31 4.5h-53c-20.93-1.79-41.93-4.29-63-7.5-33.54-7.307-67.2-13.974-101-20-32.08-5.201-62.41-.201-91 15l-8.5 6.5c-1.88-32.399 12.96-52.565 44.5-60.5a200.41 200.41 0 0 1 34-3c-24.6-27.272-49.94-53.939-76-80-20.32-18.965-43.32-33.965-69-45-37.77-12.923-75.11-11.59-112 4-44.5 21.159-62.33 55.992-53.5 104.5 11.62 35.948 35.78 58.448 72.5 67.5 31.92 7.628 60.92 1.628 87-18 24.67-21.651 32.5-48.151 23.5-79.5a64.76 64.76 0 0 0-16.5-19.5c-16.73-12.182-35.4-17.182-56-15-13.82 2.851-24.66 10.018-32.5 21.5-7.55 15.643-4.72 29.143 8.5 40.5 6.01 2.992 12.01 3.158 18 .5.21-.586.54-1.086 1-1.5-8.55-11.335-7.89-22.002 2-32 12.05-6.39 23.72-5.723 35 2 6.59 6.886 8.76 15.052 6.5 24.5-5.29 14.242-15.46 22.742-30.5 25.5-22.51 3.482-40.68-3.685-54.5-21.5-9.44-24.045-4.27-44.545 15.5-61.5 19.64-11.612 40.64-14.945 63-10 47.73 11.975 67.4 42.142 59 90.5-9.14 30.431-28.47 51.597-58 63.5-11.16 4.123-22.49 6.956-34 8.5h-21c-37.31-2.983-66.98-19.483-89-49.5-132.99-25.237-266.99-42.904-402-53l-103-.5c-3.565 16.733-13.565 27.566-30 32.5-22.382 5.984-40.549-.182-54.5-18.5a56.41 56.41 0 0 1-5.5-13.5l-673-.5v-13l673-.5c6.914-22.223 22.081-33.723 45.5-34.5 17.319.322 30.652 7.655 40 22 2.202 4.106 3.702 8.44 4.5 13 57.821 1.679 115.488-.488 173-6.5 111.37-10.72 222.04-26.386 332-47 17.72-20.539 39.72-34.539 66-42 12.64-3.362 25.31-5.862 38-7.5z" opacity=".96"/></svg>
